X:60
T:Sean Ryan's Jig
M:6/8
L:1/8
F:http://blackrosetheband.googlepages.com/ABCTUNES.ABC May 2009
S:Martin Hayes
K:Dm
"Dm"f3 edc|dcA GEC|"Dm"DED AcA|GAc dcA|
fdf ece|dcA GEC|DED AcA|GEC D3|
"G"f3 edc|dcA GEC|"Dm"DED AcA|GAc dcA|
fdf ece|dcA GEC|DED AcA|GEC D3||
|:"Dm"FED d3|edc AGE|"C"CEG c=Bc|CEG FED|
"Bb"F2F GFG|"A"AGA cde|"Bb"dcA GEC|1"C"A,B,C "Dm"D3:|2 "C"A,B,C "G"D3||
